img/tablet-images/example__desc-term-tablet.svg

<svg width="162" height="72" viewBox="0 0 162 72" fill="none" xmlns="http://www.w3.org/2000/svg">
<path fill-rule="evenodd" clip-rule="evenodd" d="M3 1H159C160.105 1 161 1.89543 161 3V69C161 70.1046 160.105 71 159 71H138V72H159C160.657 72 162 70.6569 162 69V3C162 1.34315 160.657 0 159 0H3C1.34315 0 0 1.34315 0 3V69C0 70.6569 1.34314 72 3 72H24V71H3C1.89543 71 1 70.1046 1 69V3C1 1.89543 1.89543 1 3 1Z" fill="#CDCDCD"/>
</svg>

<svg width="162" height="72" fill="none" xmlns="http://www.w3.org/2000/svg"><path fill-rule="evenodd" clip-rule="evenodd" d="M3 1h156a2 2 0 012 2v66a2 2 0 01-2 2h-21v1h21a3 3 0 003-3V3a3 3 0 00-3-3H3a3 3 0 00-3 3v66a3 3 0 003 3h21v-1H3a2 2 0 01-2-2V3a2 2 0 012-2z" fill="#CDCDCD"/></svg>
